lib/flags/ht-haiti.svg

<svg xmlns="http://www.w3.org/2000/svg" fill="none" aria-hidden="true" viewBox="0 0 42 30"><g id="Country=HT - Haiti, Size=sm (36x24)" filter="url(#filter0_dd_91_27624)"><g clip-path="url(#clip0_91_27624)"><g id="flag"><mask id="mask0_91_27624" width="36" height="24" x="3" y="2" maskUnits="userSpaceOnUse" style="mask-type:alpha"><rect id="mask" width="36" height="24" x="3" y="2" fill="white"/></mask><g mask="url(#mask0_91_27624)"><g id="contents"><path id="background" fill="#2E42A5" fill-rule="evenodd" d="M3 2V26H39V2H3Z" clip-rule="evenodd"/><mask id="mask1_91_27624" width="36" height="24" x="3" y="2" maskUnits="userSpaceOnUse" style="mask-type:alpha"><path id="background_2" fill="white" fill-rule="evenodd" d="M3 2V26H39V2H3Z" clip-rule="evenodd"/></mask><g mask="url(#mask1_91_27624)"><path id="bottom" fill="#E31D1C" fill-rule="evenodd" d="M3 14V26H39V14H3Z" clip-rule="evenodd"/><g id="mark"><rect id="bg" width="13.5" height="8" x="14.25" y="10" fill="white"/><mask id="mask2_91_27624" width="14" height="8" x="14" y="10" maskUnits="userSpaceOnUse" style="mask-type:alpha"><rect id="bg_2" width="13.5" height="8" x="14.25" y="10" fill="white"/></mask><g mask="url(#mask2_91_27624)"><path id="grass" fill="#279E19" fill-rule="evenodd" d="M14.25 16.5775C14.25 16.5775 17.4904 15.8202 21 15.8664C24.5096 15.9126 27.75 16.7553 27.75 16.7553V17.9998H14.25V16.5775Z" clip-rule="evenodd"/><g id="tree"><g id="left"><path id="Path 81" stroke="#026A16" stroke-width="0.5" d="M21.083 10.9013C21.083 10.9013 20.0355 10.4819 19.3044 10.4819C18.5732 10.4819 18.167 11.122 18.167 11.122"/><path id="Path 81_2" stroke="#026A16" stroke-width="0.5" d="M21.3156 11.3216C21.3156 11.3216 20.3517 11.0151 19.6789 11.0151C19.0061 11.0151 18.6323 11.4828 18.6323 11.4828"/><path id="Path 81_3" stroke="#026A16" stroke-width="0.5" d="M21.3155 11.677C21.3155 11.677 20.6025 11.3706 20.1048 11.3706C19.6071 11.3706 19.3306 11.8383 19.3306 11.8383"/><path id="Path 81_4" stroke="#026A16" stroke-width="0.5" d="M21.0227 12.033C21.0227 12.033 20.5822 11.7266 20.2747 11.7266C19.9672 11.7266 19.7964 12.1943 19.7964 12.1943"/><path id="Path 81_5" stroke="#026A16" stroke-width="0.5" d="M20.985 12.2755C20.985 12.2755 20.8088 12.082 20.6859 12.082C20.5629 12.082 20.4946 12.3773 20.4946 12.3773"/></g><g id="right"><path id="Path 81_6" stroke="#026A16" stroke-width="0.5" d="M20.9175 10.9013C20.9175 10.9013 21.9649 10.4819 22.6961 10.4819C23.4273 10.4819 23.8335 11.122 23.8335 11.122"/><path id="Path 81_7" stroke="#026A16" stroke-width="0.5" d="M20.6849 11.3216C20.6849 11.3216 21.6488 11.0151 22.3216 11.0151C22.9944 11.0151 23.3682 11.4828 23.3682 11.4828"/><path id="Path 81_8" stroke="#026A16" stroke-width="0.5" d="M20.685 11.677C20.685 11.677 21.398 11.3706 21.8957 11.3706C22.3934 11.3706 22.6699 11.8383 22.6699 11.8383"/><path id="Path 81_9" stroke="#026A16" stroke-width="0.5" d="M20.9778 12.033C20.9778 12.033 21.4183 11.7266 21.7258 11.7266C22.0333 11.7266 22.2041 12.1943 22.2041 12.1943"/><path id="Path 81_10" stroke="#026A16" stroke-width="0.5" d="M21.0155 12.2755C21.0155 12.2755 21.1917 12.082 21.3146 12.082C21.4376 12.082 21.5059 12.3773 21.5059 12.3773"/></g><path id="base" fill="#FECA00" fill-rule="evenodd" d="M20.8737 12.3984C20.8737 12.3984 20.7451 13.7358 20.7451 14.2801C20.7451 14.8244 20.8737 15.9989 20.8737 15.9989H21.2042C21.2042 15.9989 21.2042 14.7345 21.2042 14.2801C21.2042 13.8258 21.0102 12.3984 21.0102 12.3984H20.8737Z" clip-rule="evenodd"/></g><g id="left_2"><path id="red" fill="#C51918" fill-rule="evenodd" d="M19.574 13.9185C19.574 13.9185 18.7593 14.3061 18.7593 15.4536L19.574 16.8391H21.0443V14.5574L19.574 13.9185Z" clip-rule="evenodd"/><path id="blue" fill="#0A328C" fill-rule="evenodd" d="M18.3665 12.8262C18.3665 12.8262 16.4644 13.3271 16.4644 15.1749L18.9288 15.3618C18.9288 15.3618 18.7942 14.2882 19.5526 13.7916L18.3665 12.8262Z" clip-rule="evenodd"/><path id="spear" stroke="#FFD018" stroke-width="0.5" d="M17.5811 12.1211L20.8441 14.7792"/><path id="spear_2" stroke="#FFD018" stroke-width="0.5" d="M16.4482 12.7231L20.9994 15.3501"/><path id="spear_3" stroke="#FFD018" stroke-width="0.5" d="M15.6646 13.7397L20.7941 15.825"/><path id="canon" fill="#FECA00" fill-rule="evenodd" d="M16.4775 15.1602L19.8814 15.4984L19.6898 15.9207H19.1501L19.5177 16.1593L20.3465 16.3317V15.9207H21.0723V16.7939H19.5177L18.9214 16.1593C18.9214 16.1593 18.4206 16.5981 17.9318 16.5981C17.4431 16.5981 16.9612 16.4556 16.9612 15.977C16.9612 15.4984 16.9612 15.6441 16.9612 15.6441L16.4775 15.4984V15.1602Z" clip-rule="evenodd"/></g><g id="right_2"><path id="red_2" fill="#C51918" fill-rule="evenodd" d="M21.9607 13.9185C21.9607 13.9185 22.7754 14.3061 22.7754 15.4536L21.9607 16.8391H20.4904V14.5574L21.9607 13.9185Z" clip-rule="evenodd"/><path id="blue_2" fill="#0A328C" fill-rule="evenodd" d="M23.1682 12.8262C23.1682 12.8262 25.0703 13.3271 25.0703 15.1749L22.6059 15.3618C22.6059 15.3618 22.7405 14.2882 21.9821 13.7916L23.1682 12.8262Z" clip-rule="evenodd"/><path id="spear_4" stroke="#FFD018" stroke-width="0.5" d="M23.9536 12.1211L20.6906 14.7792"/><path id="spear_5" stroke="#FFD018" stroke-width="0.5" d="M25.0864 12.7231L20.5353 15.3501"/><path id="spear_6" stroke="#FFD018" stroke-width="0.5" d="M25.8701 13.7397L20.7406 15.825"/><path id="canon_2" fill="#FECA00" fill-rule="evenodd" d="M25.0571 15.1602L21.6533 15.4984L21.8449 15.9207H22.3845L22.017 16.1593L21.1882 16.3317V15.9207H20.4624V16.7939H22.017L22.6133 16.1593C22.6133 16.1593 23.1141 16.5981 23.6028 16.5981C24.0916 16.5981 24.5734 16.4556 24.5734 15.977C24.5734 15.4984 24.5734 15.6441 24.5734 15.6441L25.0571 15.4984V15.1602Z" clip-rule="evenodd"/></g></g></g></g></g></g></g></g></g><defs><filter id="filter0_dd_91_27624" width="42" height="30" x="0" y="0" color-interpolation-filters="sRGB" filterUnits="userSpaceOnUse"><feFlood flood-opacity="0" result="BackgroundImageFix"/><feColorMatrix in="SourceAlpha" result="hardAlpha" values="0 0 0 0 0 0 0 0 0 0 0 0 0 0 0 0 0 0 127 0"/><feOffset dy="1"/><feGaussianBlur stdDeviation="1"/><feColorMatrix values="0 0 0 0 0.0627451 0 0 0 0 0.0941176 0 0 0 0 0.156863 0 0 0 0.06 0"/><feBlend in2="BackgroundImageFix" result="effect1_dropShadow_91_27624"/><feColorMatrix in="SourceAlpha" result="hardAlpha" values="0 0 0 0 0 0 0 0 0 0 0 0 0 0 0 0 0 0 127 0"/><feOffset dy="1"/><feGaussianBlur stdDeviation="1.5"/><feColorMatrix values="0 0 0 0 0.0627451 0 0 0 0 0.0941176 0 0 0 0 0.156863 0 0 0 0.1 0"/><feBlend in2="effect1_dropShadow_91_27624" result="effect2_dropShadow_91_27624"/><feBlend in="SourceGraphic" in2="effect2_dropShadow_91_27624" result="shape"/></filter><clipPath id="clip0_91_27624"><rect width="36" height="24" x="3" y="2" fill="white" rx="2"/></clipPath></defs></svg>

<svg xmlns="http://www.w3.org/2000/svg" fill="none" aria-hidden="true" viewBox="0 0 42 30"><g filter="url(#a)"><g clip-path="url(#b)"><mask id="c" width="36" height="24" x="3" y="2" maskUnits="userSpaceOnUse" style="mask-type:alpha"><path fill="#fff" d="M3 2h36v24H3z"/></mask><g mask="url(#c)"><path fill="#2E42A5" fill-rule="evenodd" d="M3 2v24h36V2H3Z" clip-rule="evenodd"/><mask id="d" width="36" height="24" x="3" y="2" maskUnits="userSpaceOnUse" style="mask-type:alpha"><path fill="#fff" fill-rule="evenodd" d="M3 2v24h36V2H3Z" clip-rule="evenodd"/></mask><g mask="url(#d)"><path fill="#E31D1C" fill-rule="evenodd" d="M3 14v12h36V14H3Z" clip-rule="evenodd"/><path fill="#fff" d="M14.25 10h13.5v8h-13.5z"/><mask id="e" width="14" height="8" x="14" y="10" maskUnits="userSpaceOnUse" style="mask-type:alpha"><path fill="#fff" d="M14.25 10h13.5v8h-13.5z"/></mask><g mask="url(#e)"><path fill="#279E19" fill-rule="evenodd" d="M14.25 16.578s3.24-.758 6.75-.712c3.51.047 6.75.89 6.75.89V18h-13.5v-1.422Z" clip-rule="evenodd"/><g stroke="#026A16" stroke-width=".5"><path d="M21.083 10.901s-1.047-.42-1.779-.42c-.73 0-1.137.641-1.137.641"/><path d="M21.316 11.322s-.964-.307-1.637-.307-1.047.468-1.047.468"/><path d="M21.316 11.677s-.713-.306-1.211-.306c-.498 0-.774.467-.774.467"/><path d="M21.023 12.033s-.44-.306-.748-.306-.479.467-.479.467"/><path d="M20.985 12.275s-.176-.193-.3-.193c-.122 0-.19.295-.19.295"/></g><g stroke="#026A16" stroke-width=".5"><path d="M20.918 10.901s1.047-.42 1.778-.42c.731 0 1.137.641 1.137.641"/><path d="M20.685 11.322s.964-.307 1.637-.307c.672 0 1.046.468 1.046.468"/><path d="M20.685 11.677s.713-.306 1.21-.306c.498 0 .775.467.775.467"/><path d="M20.978 12.033s.44-.306.748-.306c.307 0 .478.467.478.467"/><path d="M21.015 12.275s.177-.193.3-.193.19.295.19.295"/></g><path fill="#FECA00" fill-rule="evenodd" d="M20.874 12.398s-.129 1.338-.129 1.882c0 .544.129 1.719.129 1.719h.33V14.28c0-.454-.194-1.882-.194-1.882h-.136Z" clip-rule="evenodd"/><path fill="#C51918" fill-rule="evenodd" d="M19.574 13.918s-.815.388-.815 1.536l.815 1.385h1.47v-2.282l-1.47-.639Z" clip-rule="evenodd"/><path fill="#0A328C" fill-rule="evenodd" d="M18.366 12.826s-1.902.501-1.902 2.349l2.465.187s-.135-1.074.624-1.57l-1.187-.966Z" clip-rule="evenodd"/><path stroke="#FFD018" stroke-width=".5" d="m17.581 12.121 3.263 2.658m-4.396-2.056L21 15.35m-5.335-1.61 5.13 2.085"/><path fill="#FECA00" fill-rule="evenodd" d="m16.477 15.16 3.404.338-.191.423h-.54l.368.238.828.173v-.411h.726v.873h-1.554l-.597-.635s-.5.44-.99.44c-.488 0-.97-.143-.97-.622v-.333l-.483-.146v-.338Z" clip-rule="evenodd"/><path fill="#C51918" fill-rule="evenodd" d="M21.96 13.918s.815.388.815 1.536l-.814 1.385h-1.47v-2.282l1.47-.639Z" clip-rule="evenodd"/><path fill="#0A328C" fill-rule="evenodd" d="M23.168 12.826s1.902.501 1.902 2.349l-2.464.187s.134-1.074-.624-1.57l1.186-.966Z" clip-rule="evenodd"/><path stroke="#FFD018" stroke-width=".5" d="M23.954 12.121 20.69 14.78m4.396-2.057-4.55 2.627m5.334-1.61-5.13 2.085"/><path fill="#FECA00" fill-rule="evenodd" d="m25.057 15.16-3.404.338.192.423h.54l-.368.238-.829.173v-.411h-.726v.873h1.555l.596-.635s.501.44.99.44.97-.143.97-.622v-.333l.484-.146v-.338Z" clip-rule="evenodd"/></g></g></g></g></g><defs><clipPath id="b"><rect width="36" height="24" x="3" y="2" fill="#fff" rx="2"/></clipPath><filter id="a" width="42" height="30" x="0" y="0" color-interpolation-filters="sRGB" filterUnits="userSpaceOnUse"><feFlood flood-opacity="0" result="BackgroundImageFix"/><feColorMatrix in="SourceAlpha" result="hardAlpha" values="0 0 0 0 0 0 0 0 0 0 0 0 0 0 0 0 0 0 127 0"/><feOffset dy="1"/><feGaussianBlur stdDeviation="1"/><feColorMatrix values="0 0 0 0 0.0627451 0 0 0 0 0.0941176 0 0 0 0 0.156863 0 0 0 0.06 0"/><feBlend in2="BackgroundImageFix" result="effect1_dropShadow_91_27624"/><feColorMatrix in="SourceAlpha" result="hardAlpha" values="0 0 0 0 0 0 0 0 0 0 0 0 0 0 0 0 0 0 127 0"/><feOffset dy="1"/><feGaussianBlur stdDeviation="1.5"/><feColorMatrix values="0 0 0 0 0.0627451 0 0 0 0 0.0941176 0 0 0 0 0.156863 0 0 0 0.1 0"/><feBlend in2="effect1_dropShadow_91_27624" result="effect2_dropShadow_91_27624"/><feBlend in="SourceGraphic" in2="effect2_dropShadow_91_27624" result="shape"/></filter></defs></svg>
